communes/3781.svg

<?xml version="1.0" encoding="UTF-8"?>
<!DOCTYPE svg  PUBLIC '-//W3C//DTD SVG 1.1//EN'  'http://www.w3.org/Graphics/SVG/1.1/DTD/svg11.dtd'>
<svg width="438" height="480" viewBox="21 15 438 480" xmlns="http://www.w3.org/2000/svg">
<metadata>
<rdf:RDF xmlns:dc="http://purl.org/dc/elements/1.1/" xmlns:rdf="http://www.w3.org/1999/02/22-rdf-syntax-ns#">
<rdf:Description dc:date="2006-11-04" dc:format="image/svg+xml" dc:language="de" dc:title="Wappen Bever (CH-GR)">
<dc:creator rdf:resource="http://de.wikipedia.org/wiki/Benutzer:Bernina"/>
</rdf:Description>
</rdf:RDF>
</metadata>
<title>Wappen Bever (CH-GR)</title>
<defs>
<clipPath id="a">
<path d="m360 4140a3240 3240 0 0 0 6480 0v-3870h-6480v3870z"/>
</clipPath>
<style type="text/css"><![CDATA[
  .Rand2 { stroke: #202020; stroke-width:30; }
  .Rand6 { stroke: #202020; stroke-width:90; }
  .Schwarz4 { stroke: #000000; stroke-width:60; }
  .Grau4 { stroke: #e0e0e0; stroke-width:60; }
  .Schwarz { fill: #000000; }
  .Blau { fill: #0000ff; }
  .Rot { fill: #ff0000; }
  .Gold { fill: #ffef00; }
  .Silber { fill: #ffffff; }
  ]]></style>
</defs>
<g transform="scale(.066667)" fill="none" fill-rule="evenodd" stroke-miterlimit="10" stroke-width="10">
<g clip-path="url(#a)">
<path class="Gold" d="m-225-225v7650h7650v-7650h-7650z"/>
<path class="Blau Rand2" d="m3330 5310c-90 300-180 600-210 765s0 195 45 210 105 15 150 0 75-45 120-135 105-240 150-375 75-255 105-375"/>
<path class="Blau Rand2" d="m4320 5220c90 180 180 360 255 540s135 360 195 450 120 90 180 75 120-45 135-120-15-195-75-345-150-330-240-510"/>
<path class="Rot Rand2" d="m3690 3510c-30-60-60-120-105-150s-105-30-150-30-75 0-90 15-15 45-15 120 0 195 30 315 90 240 150 360"/>
<path class="Rot Rand2" d="m3510 3420c30-60 60-120 120-210s150-210 195-285 45-105 30-120-45-15-105 45-150 180-210 285-90 195-120 285"/>
<path class="Blau Rand2" d="m3255 6105c-45-15-75-45-120-60s-105-15-120 30 15 135-15 225-120 180-195 225-135 45-195 60-120 45-150 75-30 60 0 90 90 60 195 60 255-30 375-30 210 30 270 30 90-30 90-90-30-150 0-255 120-225 135-285-45-60-105-60-120 0-165-15z"/>
<path class="Blau Rand2" d="m4860 6120c-60 0-120 0-165 15s-75 45-60 90 75 105 105 165 30 120-15 180-135 120-210 150-135 30-165 45-30 45-15 75 45 60 120 75 195 15 345-30 330-135 405-195 45-90 15-135-60-105-60-195 30-210 15-270-75-60-105-45-30 45-60 60-90 15-150 15z"/>
<path class="Blau Rand2" d="m3870 2700c-90 210-180 420-255 645s-135 465-210 795-165 750-210 975-45 255-15 285 90 60 225 75 345 15 525 0 330-45 495-30 345 75 450 90 135-15 105-120-120-285-165-585-45-720-45-1095v-1035"/>
<path class="Blau Rand2" d="m4410 1800c30 0 60 0 90-15s60-45 90-135 60-240 75-375 15-255-15-360-90-195-180-240-210-45-300-15-150 90-210 150"/>
<path class="Blau Rand2" d="m3330 2520c-180 30-360 60-480 75s-180 15-210 90-30 225-15 375 45 300 97 352c53 53 128 8 233-67s240-180 367-307c128-128 248-278 368-428"/>
<path class="Rot Rand2" d="m2430 1440v-360a360 360 0 0 0-720 0 90 90 0 0 0 180 0 180 180 0 0 1 360 0v360"/>
<path class="Silber Rand2" d="m2970 2700h-240-105c-15 0-15 0-45-30s-90-90-150-105-120 15-165 30-75 15-90 75-15 180 15 240 90 60 135 75 75 45 165 30 240-75 390-135"/>
<path class="Rot Rand2" d="m3528 3432a60 60 0 0 0-120 0 60 60 0 0 0 120 0z"/>
<path class="Blau Rand2" d="m3690 2610c-120 150-240 300-368 428-127 127-262 232-397 337l-90 45c15-120 30-240 23-375-8-135-38-285-60-360-23-75-38-75-53-75h45l540-90"/>
<path class="Blau Rand2" d="m3960 1890c-270 180-540 360-675 465s-135 135-30 225 315 240 510 315 375 75 615 75h705c165 0 195 0 210-15s15-45-60-225-225-510-360-690-255-210-300-240-15-60-15-135-30-195-75-330-105-285-165-390-120-165-188-225c-67-60-142-120-187-135s-60 15-67 45c-8 30-8 60-23 90s-45 60-60 90-15 60 0 75 45 15 120 60 195 135 315 225"/>
<path class="Rot Rand2" d="m2250 1440v5040l90 90 90-90v-5040h-180z"/>
<path class="Rot Rand2" d="m2250 1770a60 60 0 0 0-60 60 60 60 0 0 0 60 60h180a60 60 0 0 0 60-60 60 60 0 0 0-60-60h-180z"/>
<path class="Rot Rand2" d="m2250 1350a90 90 0 0 0-90 90 90 90 0 0 0 90 90h180a90 90 0 0 0 90-90 90 90 0 0 0-90-90h-180z"/>
<path class="Gold Rand2" d="m4725 3330v-540h-630v540h630z"/>
<path class="Schwarz4" d="m4185 3060h450"/>
<path class="Schwarz4" d="m4320 2880v360"/>
<path class="Silber Rand2" d="m2310 2805c-30-15-90-15-120 0s-30 45 0 60 90 15 120 0 30-45 0-60z"/>
<path class="Silber Rand2" d="m2310 2715c-30-15-90-15-120 0s-30 45 0 60 90 15 120 0 30-45 0-60z"/>
<path class="Silber Rand2" d="m2310 2625c-30-15-90-15-120 0s-30 45 0 60 90 15 120 0 30-45 0-60z"/>
<path class="Silber Rand2" d="m2610 2880c-60 0-120 0-135-30s15-90 0-135-75-75-105-105-30-60-15-75 45-15 90 15 105 90 165 150"/>
<path class="Silber Rand2" d="m4590 3330c-30 0-60 0-90-15s-60-45-60-90 30-105 15-135-75-30-105 15-30 135-45 180-45 45-75 30-60-45-90-75-60-60-90-60-60 30-45 60 75 60 105 105 30 105 45 150 45 75 120 90 195 15 315 15"/>
<path class="Silber Rand2" d="m3870 900c0 60 0 120-42.33 201.67-42.34 81.66-127 185-134.34 235.33-7.33 50.33 62.67 47.67 90 56 27.34 8.33 12 27.67 4.34 52.33-7.67 24.67-7.67 54.67 7.33 84.67s45 60 45 75-30 15-45 60-15 135-45 240-90 225-90 285 60 60 195-15 345-225 450-330 105-165 75-270-90-255-165-360-165-165-255-225"/>
<path class="Blau Rand2" d="m5220 2970c0 30 0 60-15 120s-45 150-105 255-150 225-240 315-180 150-240 165-90-15-105-105-15-240-30-345-45-165-30-195 75-30 135-45 120-45 150-90 30-105 75-150 135-75 210-60 135 75 195 135z"/>
<path class="Grau4" d="m3878 1818c20 50 40 100 47.33 142.33 7.34 42.34 2 77-3.33 111.67"/>
<path class="Grau4" d="m3960 1772c32.67 32.67 65.33 65.33 82.67 98 17.33 32.67 19.33 65.33 21.33 98"/>
<path class="Grau4" d="m4042 1720c40 22.67 80 45.33 108.67 67.67 28.66 22.33 46 44.33 63.33 66.33"/>
<path class="Grau4" d="m4170 1614c20-2 40-4 65 10s55 44 85 74"/>
<path class="Grau4" d="m4162 1510 112-38"/>
<path class="Grau4" d="m4162 1398 68-54"/>
<path class="Grau4" d="m4110 1652c-50 32.67-100 65.33-147.67 78-47.66 12.67-93 5.33-138.33-2"/>
<path class="Grau4" d="m3824 1764-6 84"/>
<path class="Grau4" d="m3794 1922c0 40 0 80-7.33 115-7.34 35-22 65-36.67 95"/>
<path class="Rand2" d="m4230 1260c-60 30-120 60-135 90s15 60 30 105 15 105 15 165"/>
<path class="Rand2" d="m3870 1440c30 0 60 0 105 30s105 90 135 135 30 75 30 105"/>
<path class="Rand2" d="m3804 1622c20-4.67 40-9.33 60-5.67 20 3.67 40 15.67 60 27.67"/>
<path class="Rand2" d="m3886 1112c35.33 7.33 70.67 14.67 99.67 29.67s51.66 37.66 74.33 60.33"/>
<path class="Rand2" d="m3812 1938c20-2.67 40-5.33 51.33 12 11.34 17.33 14 54.67 10.34 91-3.67 36.33-13.67 71.67-23.67 107"/>
<path class="Rand2" d="m3932 1878c12.67-8 25.33-16 36.67-6 11.33 10 21.33 38 27.66 68 6.34 30 9 62 11.67 94"/>
<path class="Rand2" d="m4014 1802c12.67-17.33 25.33-34.67 45.33-27s47.34 40.33 67.34 69 32.66 53.33 45.33 78"/>
<path class="Rand2" d="m4172 1728c20-22.67 40-45.33 57.33-50.33 17.34-5 32 7.66 37 32.66s0.34 62.34-4.33 99.67"/>
<path class="Rand2" d="m4240 1398c-18 27.33-36 54.67-25 75.67s51 35.66 58.67 52c7.66 16.33-17 34.33-9.34 52 7.67 17.66 47.67 35 87.67 52.33"/>
<path class="Schwarz" d="m3998 1172a44 44 0 0 0-88 0 44 44 0 0 0 88 0z"/>
<path class="Silber Rand2" d="m3892 578c-22 22-22 82-41 127s-57 75-57 105 38 60 64 60c27 0 42-30 87-60s120-60 143-90c22-30-8-60-46-60-37 0-82 30-90 22-7-7 23-52 16-82-8-30-53-45-76-22z"/>
</g>
<path class="Rand6" d="m360 4140a3240 3240 0 0 0 6480 0v-3870h-6480v3870z"/>
</g>
</svg>

<?xml version="1.0" encoding="iso-8859-1"?>
<!DOCTYPE svg PUBLIC "-//W3C//DTD SVG 1.1//EN" "http://www.w3.org/Graphics/SVG/1.1/DTD/svg11.dtd">
<!-- Auto-generated by fig2svg tool
     Date: Sat Nov  4 16:47:59 2006 -->
<svg xmlns="http://www.w3.org/2000/svg"
     width="438" height="480" viewBox="21 15 438 480">
<metadata>
<rdf:RDF xmlns:rdf="http://www.w3.org/1999/02/22-rdf-syntax-ns#"
         xmlns:dc="http://purl.org/dc/elements/1.1/">
<rdf:Description
 dc:title="Wappen Bever (CH-GR)"
 dc:date="2006-11-04"
 dc:format="image/svg+xml"
 dc:language="de">
<dc:creator rdf:resource="http://de.wikipedia.org/wiki/Benutzer:Bernina" />
</rdf:Description>
</rdf:RDF>
</metadata>
<title>
Wappen Bever (CH-GR)
</title>
<defs>
<clipPath id="clippath">
<path d="M360,4140 A3240,3240 0.0 0 0 6840,4140 L6840,270 L360,270 L360,4140 Z" />
</clipPath>
<style type="text/css">
  <![CDATA[
  .Rand2 { stroke: #202020; stroke-width:30; }
  .Rand6 { stroke: #202020; stroke-width:90; }
  .Schwarz4 { stroke: #000000; stroke-width:60; }
  .Grau4 { stroke: #e0e0e0; stroke-width:60; }
  .Schwarz { fill: #000000; }
  .Blau { fill: #0000ff; }
  .Rot { fill: #ff0000; }
  .Gold { fill: #ffef00; }
  .Silber { fill: #ffffff; }
  ]]>
</style>
</defs>
<g stroke="none" stroke-miterlimit="10" stroke-width="10"
   stroke-linecap="butt" stroke-linejoin="miter"
   fill="none" fill-rule="evenodd" transform="scale(0.066667)">
<g clip-path="url(#clippath)">
<path id="feld-1" class="Gold"
      d="M-225,-225 L-225,7425 L7425,7425 L7425,-225 L-225,-225 Z" />
<path id="figur1-1" class="Blau Rand2"
      d="M3330,5310 C3240,5610 3150,5910 3120,6075
         C3090,6240 3120,6270 3165,6285 C3210,6300 3270,6300 3315,6285
         C3360,6270 3390,6240 3435,6150 C3480,6060 3540,5910 3585,5775
         C3630,5640 3660,5520 3690,5400" />
<path id="figur1-2" class="Blau Rand2"
      d="M4320,5220 C4410,5400 4500,5580 4575,5760
         C4650,5940 4710,6120 4770,6210 C4830,6300 4890,6300 4950,6285
         C5010,6270 5070,6240 5085,6165 C5100,6090 5070,5970 5010,5820
         C4950,5670 4860,5490 4770,5310" />
<path id="tasche1-1" class="Rot Rand2"
      d="M3690,3510 C3660,3450 3630,3390 3585,3360
         C3540,3330 3480,3330 3435,3330 C3390,3330 3360,3330 3345,3345
         C3330,3360 3330,3390 3330,3465 C3330,3540 3330,3660 3360,3780
         C3390,3900 3450,4020 3510,4140" />
<path id="tasche2-1" class="Rot Rand2"
      d="M3510,3420 C3540,3360 3570,3300 3630,3210
         C3690,3120 3780,3000 3825,2925 C3870,2850 3870,2820 3855,2805
         C3840,2790 3810,2790 3750,2850 C3690,2910 3600,3030 3540,3135
         C3480,3240 3450,3330 3420,3420" />
<path id="figur2-1" class="Blau Rand2"
      d="M3255,6105 C3210,6090 3180,6060 3135,6045
         C3090,6030 3030,6030 3015,6075 C3000,6120 3030,6210 3000,6300
         C2970,6390 2880,6480 2805,6525 C2730,6570 2670,6570 2610,6585
         C2550,6600 2490,6630 2460,6660 C2430,6690 2430,6720 2460,6750
         C2490,6780 2550,6810 2655,6810 C2760,6810 2910,6780 3030,6780
         C3150,6780 3240,6810 3300,6810 C3360,6810 3390,6780 3390,6720
         C3390,6660 3360,6570 3390,6465 C3420,6360 3510,6240 3525,6180
         C3540,6120 3480,6120 3420,6120 C3360,6120 3300,6120 3255,6105 Z" />
<path id="figur2-2" class="Blau Rand2"
      d="M4860,6120 C4800,6120 4740,6120 4695,6135
         C4650,6150 4620,6180 4635,6225 C4650,6270 4710,6330 4740,6390
         C4770,6450 4770,6510 4725,6570 C4680,6630 4590,6690 4515,6720
         C4440,6750 4380,6750 4350,6765 C4320,6780 4320,6810 4335,6840
         C4350,6870 4380,6900 4455,6915 C4530,6930 4650,6930 4800,6885
         C4950,6840 5130,6750 5205,6690 C5280,6630 5250,6600 5220,6555
         C5190,6510 5160,6450 5160,6360 C5160,6270 5190,6150 5175,6090
         C5160,6030 5100,6030 5070,6045 C5040,6060 5040,6090 5010,6105
         C4980,6120 4920,6120 4860,6120 Z" />
<path id="figur2-3" class="Blau Rand2"
      d="M3870,2700 C3780,2910 3690,3120 3615,3345
         C3540,3570 3480,3810 3405,4140 C3330,4470 3240,4890 3195,5115
         C3150,5340 3150,5370 3180,5400 C3210,5430 3270,5460 3405,5475
         C3540,5490 3750,5490 3930,5475 C4110,5460 4260,5430 4425,5445
         C4590,5460 4770,5520 4875,5535 C4980,5550 5010,5520 4980,5415
         C4950,5310 4860,5130 4815,4830 C4770,4530 4770,4110 4770,3735
         C4770,3360 4770,3030 4770,2700" />
<path id="figur2-4" class="Blau Rand2"
      d="M4410,1800 C4440,1800 4470,1800 4500,1785
         C4530,1770 4560,1740 4590,1650 C4620,1560 4650,1410 4665,1275
         C4680,1140 4680,1020 4650,915 C4620,810 4560,720 4470,675
         C4380,630 4260,630 4170,660 C4080,690 4020,750 3960,810" />
<path id="figur2-5" class="Blau Rand2"
      d="M3330,2520 C3150,2550 2970,2580 2850,2595
         C2730,2610 2670,2610 2640,2685 C2610,2760 2610,2910 2625,3060
         C2640,3210 2670,3360 2722,3412 C2775,3465 2850,3420 2955,3345
         C3060,3270 3195,3165 3322,3038 C3450,2910 3570,2760 3690,2610" />
<path id="stab1-1" class="Rot Rand2"
      d="M2430,1440 L2430,1080 A360,360 0.0 0 0 1710,1080
         A90,90 0.0 0 0 1890,1080 A180,180 0.0 0 1 2250,1080 L2250,1440" />
<path id="hand1-1" class="Silber Rand2"
      d="M2970,2700 C2880,2700 2790,2700 2730,2700
         C2670,2700 2640,2700 2625,2700 C2610,2700 2610,2700 2580,2670
         C2550,2640 2490,2580 2430,2565 C2370,2550 2310,2580 2265,2595
         C2220,2610 2190,2610 2175,2670 C2160,2730 2160,2850 2190,2910
         C2220,2970 2280,2970 2325,2985 C2370,3000 2400,3030 2490,3015
         C2580,3000 2730,2940 2880,2880" />
<path id="tasche3-1" class="Rot Rand2"
      d="M3528,3432 A60,60 0.0 0 0 3408,3432 A60,60 0.0 0 0 3528,3432 Z" />
<path id="figur3-1" class="Blau Rand2"
      d="M3690,2610 C3570,2760 3450,2910 3322,3038
         C3195,3165 3060,3270 2925,3375 L2835,3420
         C2850,3300 2865,3180 2858,3045 C2850,2910 2820,2760 2798,2685
         C2775,2610 2760,2610 2745,2610 L2790,2610 L3330,2520" />
<path id="figur4-1" class="Blau Rand2"
      d="M3960,1890 C3690,2070 3420,2250 3285,2355
         C3150,2460 3150,2490 3255,2580 C3360,2670 3570,2820 3765,2895
         C3960,2970 4140,2970 4380,2970 C4620,2970 4920,2970 5085,2970
         C5250,2970 5280,2970 5295,2955 C5310,2940 5310,2910 5235,2730
         C5160,2550 5010,2220 4875,2040 C4740,1860 4620,1830 4575,1800
         C4530,1770 4560,1740 4560,1665 C4560,1590 4530,1470 4485,1335
         C4440,1200 4380,1050 4320,945 C4260,840 4200,780 4132,720
         C4065,660 3990,600 3945,585 C3900,570 3885,600 3878,630
         C3870,660 3870,690 3855,720 C3840,750 3810,780 3795,810
         C3780,840 3780,870 3795,885 C3810,900 3840,900 3915,945
         C3990,990 4110,1080 4230,1170" />
<path id="stab2-1" class="Rot Rand2"
      d="M2250,1440 L2250,6480 L2340,6570 L2430,6480 L2430,1440 L2250,1440 Z" />
<path id="stab3-1" class="Rot Rand2"
      d="M2250,1770 A60,60 0.0 0 0 2190,1830 A60,60 0.0 0 0 2250,1890
         L2430,1890 A60,60 0.0 0 0 2490,1830 A60,60 0.0 0 0 2430,1770
         L2250,1770 Z" />
<path id="stab3-2" class="Rot Rand2"
      d="M2250,1350 A90,90 0.0 0 0 2160,1440 A90,90 0.0 0 0 2250,1530
         L2430,1530 A90,90 0.0 0 0 2520,1440 A90,90 0.0 0 0 2430,1350
         L2250,1350 Z" />
<path id="buch-1" class="Gold Rand2"
      d="M4725,3330 L4725,2790 L4095,2790 L4095,3330 L4725,3330 Z" />
<path id="kreuz-1" class="Schwarz4" d="M4185,3060 L4635,3060" />
<path id="kreuz-2" class="Schwarz4" d="M4320,2880 L4320,3240" />
<path id="hand2-1" class="Silber Rand2"
      d="M2310,2805 C2280,2790 2220,2790 2190,2805
         C2160,2820 2160,2850 2190,2865 C2220,2880 2280,2880 2310,2865
         C2340,2850 2340,2820 2310,2805 Z" />
<path id="hand2-2" class="Silber Rand2"
      d="M2310,2715 C2280,2700 2220,2700 2190,2715
         C2160,2730 2160,2760 2190,2775 C2220,2790 2280,2790 2310,2775
         C2340,2760 2340,2730 2310,2715 Z" />
<path id="hand2-3" class="Silber Rand2"
      d="M2310,2625 C2280,2610 2220,2610 2190,2625
         C2160,2640 2160,2670 2190,2685 C2220,2700 2280,2700 2310,2685
         C2340,2670 2340,2640 2310,2625 Z" />
<path id="hand2-4" class="Silber Rand2"
      d="M2610,2880 C2550,2880 2490,2880 2475,2850
         C2460,2820 2490,2760 2475,2715 C2460,2670 2400,2640 2370,2610
         C2340,2580 2340,2550 2355,2535 C2370,2520 2400,2520 2445,2550
         C2490,2580 2550,2640 2610,2700" />
<path id="hand3-1" class="Silber Rand2"
      d="M4590,3330 C4560,3330 4530,3330 4500,3315
         C4470,3300 4440,3270 4440,3225 C4440,3180 4470,3120 4455,3090
         C4440,3060 4380,3060 4350,3105 C4320,3150 4320,3240 4305,3285
         C4290,3330 4260,3330 4230,3315 C4200,3300 4170,3270 4140,3240
         C4110,3210 4080,3180 4050,3180 C4020,3180 3990,3210 4005,3240
         C4020,3270 4080,3300 4110,3345 C4140,3390 4140,3450 4155,3495
         C4170,3540 4200,3570 4275,3585 C4350,3600 4470,3600 4590,3600" />
<path id="kopf-1" class="Silber Rand2"
      d="M3870,900 C3870,960 3870,1020 3827.67,1101.67
         C3785.33,1183.33 3700.67,1286.67 3693.33,1337
         C3686,1387.33 3756,1384.67 3783.33,1393
         C3810.67,1401.33 3795.33,1420.67 3787.67,1445.33
         C3780,1470 3780,1500 3795,1530 C3810,1560 3840,1590 3840,1605
         C3840,1620 3810,1620 3795,1665 C3780,1710 3780,1800 3750,1905
         C3720,2010 3660,2130 3660,2190 C3660,2250 3720,2250 3855,2175
         C3990,2100 4200,1950 4305,1845 C4410,1740 4410,1680 4380,1575
         C4350,1470 4290,1320 4215,1215 C4140,1110 4050,1050 3960,990" />
<path id="figur5-1" class="Blau Rand2"
      d="M5220,2970 C5220,3000 5220,3030 5205,3090
         C5190,3150 5160,3240 5100,3345 C5040,3450 4950,3570 4860,3660
         C4770,3750 4680,3810 4620,3825 C4560,3840 4530,3810 4515,3720
         C4500,3630 4500,3480 4485,3375 C4470,3270 4440,3210 4455,3180
         C4470,3150 4530,3150 4590,3135 C4650,3120 4710,3090 4740,3045
         C4770,3000 4770,2940 4815,2895 C4860,2850 4950,2820 5025,2835
         C5100,2850 5160,2910 5220,2970 Z" />
<path id="bart-1" class="Grau4"
      d="M3878,1818 C3898,1868 3918,1918 3925.33,1960.33
         C3932.67,2002.67 3927.33,2037.33 3922,2072" />
<path id="bart-2" class="Grau4"
      d="M3960,1772 C3992.67,1804.67 4025.33,1837.33 4042.67,1870
         C4060,1902.67 4062,1935.33 4064,1968" />
<path id="bart-3" class="Grau4"
      d="M4042,1720 C4082,1742.67 4122,1765.33 4150.67,1787.67
         C4179.33,1810 4196.67,1832 4214,1854" />
<path id="bart-4" class="Grau4"
      d="M4170,1614 C4190,1612 4210,1610 4235,1624 C4260,1638 4290,1668 4320,1698" />
<path id="bart-5" class="Grau4" d="M4162,1510 L4274,1472" />
<path id="bart-6" class="Grau4" d="M4162,1398 L4230,1344" />
<path id="bart-7" class="Grau4"
      d="M4110,1652 C4060,1684.67 4010,1717.33 3962.33,1730
         C3914.67,1742.67 3869.33,1735.33 3824,1728" />
<path id="bart-8" class="Grau4" d="M3824,1764 L3818,1848" />
<path id="bart-9" class="Grau4"
      d="M3794,1922 C3794,1962 3794,2002 3786.67,2037 C3779.33,2072 3764.67,2102 3750,2132" />
<path id="klinie-1" class="Rand2"
      d="M4230,1260 C4170,1290 4110,1320 4095,1350
         C4080,1380 4110,1410 4125,1455 C4140,1500 4140,1560 4140,1620" />
<path id="klinie-2" class="Rand2"
      d="M3870,1440 C3900,1440 3930,1440 3975,1470
         C4020,1500 4080,1560 4110,1605 C4140,1650 4140,1680 4140,1710" />
<path id="klinie-3" class="Rand2"
      d="M3804,1622 C3824,1617.33 3844,1612.67 3864,1616.33 C3884,1620 3904,1632 3924,1644" />
<path id="klinie-4" class="Rand2"
      d="M3886,1112 C3921.33,1119.33 3956.67,1126.67 3985.67,1141.67
         C4014.67,1156.67 4037.33,1179.33 4060,1202" />
<path id="klinie-5" class="Rand2"
      d="M3812,1938 C3832,1935.33 3852,1932.67 3863.33,1950
         C3874.67,1967.33 3877.33,2004.67 3873.67,2041
         C3870,2077.33 3860,2112.67 3850,2148" />
<path id="klinie-6" class="Rand2"
      d="M3932,1878 C3944.67,1870 3957.33,1862 3968.67,1872
         C3980,1882 3990,1910 3996.33,1940 C4002.67,1970 4005.33,2002 4008,2034" />
<path id="klinie-7" class="Rand2"
      d="M4014,1802 C4026.67,1784.67 4039.33,1767.33 4059.33,1775
         C4079.33,1782.67 4106.67,1815.33 4126.67,1844
         C4146.67,1872.67 4159.33,1897.33 4172,1922" />
<path id="klinie-8" class="Rand2"
      d="M4172,1728 C4192,1705.33 4212,1682.67 4229.33,1677.67
         C4246.67,1672.67 4261.33,1685.33 4266.33,1710.33
         C4271.33,1735.33 4266.67,1772.67 4262,1810" />
<path id="klinie-9" class="Rand2"
      d="M4240,1398 C4222,1425.33 4204,1452.67 4215,1473.67
         C4226,1494.67 4266,1509.33 4273.67,1525.67
         C4281.33,1542 4256.67,1560 4264.33,1577.67 C4272,1595.33 4312,1612.67 4352,1630" />
<path id="auge-1" class="Schwarz"
      d="M3998,1172 A44,44 0.0 0 0 3910,1172 A44,44 0.0 0 0 3998,1172 Z" />
<path id="y-1" class="Silber Rand2"
      d="M3892,578 C3870,600 3870,660 3851,705 C3832,750 3794,780 3794,810
         C3794,840 3832,870 3858,870 C3885,870 3900,840 3945,810
         C3990,780 4065,750 4088,720 C4110,690 4080,660 4042,660
         C4005,660 3960,690 3952,682 C3945,675 3975,630 3968,600
         C3960,570 3915,555 3892,578 Z" />
</g>
<path id="clip-boundary" class="Rand6"
      d="M360,4140 A3240,3240 0.0 0 0 6840,4140 L6840,270 L360,270 L360,4140 Z" />
</g>
</svg>
